X: 1702
T: Antigonish Polka, The
R: barndance
M: 4/4
K: Dmajor
FG|:A2 f2 fedB|A2 AB AGFA|d2 cd b2a2|g2ga gfed|
c2 cd cBAc|d3c defg|a2 ^ga b2 c2|d4- d2FG:|
|:A2 ^GA Bcde|f2A2 f2FG|A2 ^GA Bcde|f2A2 fagf|
eagf edcB|Aagf edcB|A/B/A ^GA B2c2|d4- d2FG:|

